public/assets/logos/logo.svg

<?xml version="1.0" encoding="UTF-8"?>
<svg id="Layer_2" xmlns="http://www.w3.org/2000/svg" viewBox="0 0 1322.72 298.87">
  <defs>
    <style>
      .cls-1 {
        fill: #fff;
      }

      .cls-2 {
        fill: #5cbd79;
      }
    </style>
  </defs>
  <g id="Layer_1-2" data-name="Layer_1">
    <g>
      <g>
        <polygon class="cls-2" points="121.23 193.45 56.93 232.45 0 199.77 175 100.68 175 298.87 121.23 268.3 121.23 193.45"/>
        <polygon class="cls-2" points="16.87 86.75 175 0 175 66.94 61.14 131.03 16.87 86.75"/>
      </g>
      <g>
        <path class="cls-1" d="M286.33,133.92h-34.26v-26.71h34.26v-20.32c0-31.64,18.29-48.77,51.97-48.77,7.84,0,15.39.58,21.48,2.61v27c-6.97-1.74-11.61-2.61-18.29-2.61-15.97,0-23.81,7.26-23.81,22.35v19.74h42.1v26.71h-42.1v121.93h-31.35v-121.93Z"/>
        <path class="cls-1" d="M375.45,181.53c0-43.26,34.55-77.22,78.09-77.22s77.8,33.97,77.8,77.22-34.26,77.22-77.8,77.22-78.09-33.68-78.09-77.22ZM500.28,181.53c0-27.58-20.61-49.35-46.74-49.35s-47.03,21.77-47.03,49.35,20.61,49.35,47.03,49.35,46.74-21.48,46.74-49.35Z"/>
        <path class="cls-1" d="M565.6,107.21h31.64v18.58c9.29-13.94,23.23-22.06,40.64-22.06,6.68.29,11.03.87,15.1,2.9v28.16c-5.52-2.32-11.61-3.48-18-3.48-16.55,0-30.19,9.29-37.74,25.84v98.71h-31.64V107.21Z"/>
        <path class="cls-1" d="M671.56,107.21h30.48l27.87,105.67,32.81-105.67h27l32.52,105.96,27.87-105.96h29.9l-41.52,148.64h-30.48l-32.22-105.38-32.52,105.38h-30.48l-41.22-148.64Z"/>
        <path class="cls-1" d="M897.71,213.17c0-28.16,22.93-45.29,60.39-45.29,13.94,0,27.29,2.9,39.48,7.84v-14.52c0-20.03-11.9-30.19-34.84-30.19-13.64,0-27.58,3.77-46.16,12.48l-11.61-23.81c22.64-10.74,42.1-15.39,62.13-15.39,39.19,0,61.55,19.16,61.55,53.42v98.13h-31.06v-12.19c-12.77,10.16-27.58,14.81-45.29,14.81-32.23,0-54.58-18.29-54.58-45.29ZM959.83,235.23c15.1,0,27.58-4.06,37.74-13.06v-24.39c-10.74-5.81-22.64-8.42-36.58-8.42-20.32,0-32.81,9-32.81,22.93s12.48,22.93,31.64,22.93Z"/>
        <path class="cls-1" d="M1068.7,107.21h31.64v18.58c9.29-13.94,23.23-22.06,40.64-22.06,6.68.29,11.03.87,15.1,2.9v28.16c-5.52-2.32-11.61-3.48-18-3.48-16.55,0-30.19,9.29-37.74,25.84v98.71h-31.64V107.21Z"/>
        <path class="cls-1" d="M1171.47,181.24c0-42.68,33.39-76.35,76.06-76.35,15.97,0,31.06,4.94,43.55,13.93V52.63l31.64-5.81v209.03h-31.06v-13.64c-12.48,10.45-27.87,15.97-44.71,15.97-42.1,0-75.48-33.68-75.48-76.93ZM1291.07,213.75v-64.74c-9.29-10.45-23.81-16.84-39.77-16.84-27.58,0-48.48,20.9-48.48,49.06s21.19,49.35,48.48,49.35c16.26,0,30.48-6.1,39.77-16.84Z"/>
      </g>
    </g>
  </g>
</svg>

<svg width="1323" height="299" viewBox="0 0 1323 299" fill="none" xmlns="http://www.w3.org/2000/svg">
<g clip-path="url(#clip0_3_67)">
<path d="M121.23 193.45L56.93 232.45L0 199.77L175 100.68V298.87L121.23 268.3V193.45Z" fill="#14FF5A"/>
<path d="M16.8701 86.75L175 0V66.94L61.1401 131.03L16.8701 86.75Z" fill="#14FF5A"/>
<path d="M286.33 133.92H252.07V107.21H286.33V86.8901C286.33 55.2501 304.62 38.1201 338.3 38.1201C346.14 38.1201 353.69 38.7001 359.78 40.7301V67.7301C352.81 65.9901 348.17 65.1201 341.49 65.1201C325.52 65.1201 317.68 72.3801 317.68 87.4701V107.21H359.78V133.92H317.68V255.85H286.33V133.92Z" fill="white"/>
<path d="M375.45 181.53C375.45 138.27 410 104.31 453.54 104.31C497.08 104.31 531.34 138.28 531.34 181.53C531.34 224.78 497.08 258.75 453.54 258.75C410 258.75 375.45 225.07 375.45 181.53ZM500.28 181.53C500.28 153.95 479.67 132.18 453.54 132.18C427.41 132.18 406.51 153.95 406.51 181.53C406.51 209.11 427.12 230.88 453.54 230.88C479.96 230.88 500.28 209.4 500.28 181.53Z" fill="white"/>
<path d="M565.6 107.21H597.24V125.79C606.53 111.85 620.47 103.73 637.88 103.73C644.56 104.02 648.91 104.6 652.98 106.63V134.79C647.46 132.47 641.37 131.31 634.98 131.31C618.43 131.31 604.79 140.6 597.24 157.15V255.86H565.6V107.21Z" fill="white"/>
<path d="M671.56 107.21H702.04L729.91 212.88L762.72 107.21H789.72L822.24 213.17L850.11 107.21H880.01L838.49 255.85H808.01L775.79 150.47L743.27 255.85H712.79L671.57 107.21H671.56Z" fill="white"/>
<path d="M897.71 213.17C897.71 185.01 920.64 167.88 958.1 167.88C972.04 167.88 985.39 170.78 997.58 175.72V161.2C997.58 141.17 985.68 131.01 962.74 131.01C949.1 131.01 935.16 134.78 916.58 143.49L904.97 119.68C927.61 108.94 947.07 104.29 967.1 104.29C1006.29 104.29 1028.65 123.45 1028.65 157.71V255.84H997.59V243.65C984.82 253.81 970.01 258.46 952.3 258.46C920.07 258.46 897.72 240.17 897.72 213.17H897.71ZM959.83 235.23C974.93 235.23 987.41 231.17 997.57 222.17V197.78C986.83 191.97 974.93 189.36 960.99 189.36C940.67 189.36 928.18 198.36 928.18 212.29C928.18 226.22 940.66 235.22 959.82 235.22L959.83 235.23Z" fill="white"/>
<path d="M1068.7 107.21H1100.34V125.79C1109.63 111.85 1123.57 103.73 1140.98 103.73C1147.66 104.02 1152.01 104.6 1156.08 106.63V134.79C1150.56 132.47 1144.47 131.31 1138.08 131.31C1121.53 131.31 1107.89 140.6 1100.34 157.15V255.86H1068.7V107.21Z" fill="white"/>
<path d="M1171.47 181.24C1171.47 138.56 1204.86 104.89 1247.53 104.89C1263.5 104.89 1278.59 109.83 1291.08 118.82V52.6301L1322.72 46.8201V255.85H1291.66V242.21C1279.18 252.66 1263.79 258.18 1246.95 258.18C1204.85 258.18 1171.47 224.5 1171.47 181.25V181.24ZM1291.07 213.75V149.01C1281.78 138.56 1267.26 132.17 1251.3 132.17C1223.72 132.17 1202.82 153.07 1202.82 181.23C1202.82 209.39 1224.01 230.58 1251.3 230.58C1267.56 230.58 1281.78 224.48 1291.07 213.74V213.75Z" fill="white"/>
</g>
<defs>
<clipPath id="clip0_3_67">
<rect width="1322.72" height="298.87" fill="white"/>
</clipPath>
</defs>
</svg>
